Numix-GalliumOS/22/animations/nm-stage01-connecting11.svg

<?xml version="1.0" encoding="UTF-8" standalone="no"?>
<!-- Created with Inkscape (http://www.inkscape.org/) -->

<svg
   xmlns:dc="http://purl.org/dc/elements/1.1/"
   xmlns:cc="http://creativecommons.org/ns#"
   xmlns:rdf="http://www.w3.org/1999/02/22-rdf-syntax-ns#"
   xmlns:svg="http://www.w3.org/2000/svg"
   xmlns="http://www.w3.org/2000/svg"
   xmlns:sodipodi="http://sodipodi.sourceforge.net/DTD/sodipodi-0.dtd"
   xmlns:inkscape="http://www.inkscape.org/namespaces/inkscape"
   sodipodi:docname="nm-vpn-connecting11.svg"
   height="22"
   id="svg6530"
   version="1.1"
   inkscape:version="0.91 r"
   viewBox="0 0 22 22"
   width="22">
  <defs
     id="defs6532" />
  <sodipodi:namedview
     inkscape:bbox-nodes="true"
     bordercolor="#666666"
     borderopacity="1.0"
     inkscape:current-layer="layer1"
     inkscape:cx="3.1837953"
     inkscape:cy="10.205224"
     inkscape:document-units="px"
     id="base"
     inkscape:object-nodes="true"
     inkscape:object-paths="true"
     pagecolor="#454d50"
     inkscape:pageopacity="0"
     inkscape:pageshadow="2"
     showgrid="true"
     inkscape:snap-bbox="true"
     inkscape:snap-bbox-edge-midpoints="true"
     inkscape:snap-bbox-midpoints="true"
     inkscape:snap-smooth-nodes="true"
     units="px"
     inkscape:window-height="1056"
     inkscape:window-maximized="1"
     inkscape:window-width="1920"
     inkscape:window-x="0"
     inkscape:window-y="24"
     inkscape:zoom="22.627417"
     inkscape:snap-intersection-paths="true">
    <inkscape:grid
       empspacing="4"
       id="grid8845"
       originx="-81.000207px"
       originy="-503.00169px"
       type="xygrid" />
  </sodipodi:namedview>
  <metadata
     id="metadata6535">
    <rdf:RDF>
      <cc:Work
         rdf:about="">
        <dc:format>image/svg+xml</dc:format>
        <dc:type
           rdf:resource="http://purl.org/dc/dcmitype/StillImage" />
        <dc:title />
      </cc:Work>
    </rdf:RDF>
  </metadata>
  <g
     inkscape:groupmode="layer"
     id="layer1"
     inkscape:label="panel"
     transform="translate(-81.000208,-527.36047)">
    <path
       style="color:#000000;line-height:normal;opacity:0.4;fill:#ececec;fill-opacity:1"
       mask="none"
       d="M 11 7 C 8.517428 7 6.201029 7.8552637 4.25 9.3398438 L 8.75 15.779297 C 9.400343 15.284437 10.172476 15 11 15 C 11.827524 15 12.599656 15.284437 13.25 15.779297 L 17.75 9.3398438 C 15.79897 7.8552637 13.482572 7 11 7 z "
       transform="translate(81.000208,527.36047)"
       id="path4143" />
    <path
       style="color:#000000;line-height:normal;opacity:0.75;fill:#ececec;fill-opacity:1"
       mask="none"
       d="M 11 3 C 7.689903 3 4.601371 4.1416638 2 6.1210938 L 4.25 9.3398438 C 6.201029 7.8552637 8.517428 7 11 7 C 13.482572 7 15.79897 7.8552637 17.75 9.3398438 L 20 6.1210938 C 17.398625 4.1416638 14.310101 3 11 3 z "
       transform="translate(81.000208,527.36047)"
       id="path18" />
    <path
       sodipodi:nodetypes="csccc"
       inkscape:connector-curvature="0"
       id="path18-5"
       d="m 94.250208,543.14074 c -0.650344,-0.49486 -1.422476,-0.78027 -2.25,-0.78027 -0.827524,0 -1.599657,0.28541 -2.25,0.78027 l 2.25,3.21973 z"
       style="color:#000000;line-height:normal;opacity:0.75;fill:#ececec;fill-opacity:1"
       mask="none" />
  </g>
  <g
     inkscape:groupmode="layer"
     id="layer2"
     inkscape:label="animations"
     transform="translate(-81.000208,-74.998314)" />
</svg>

<svg xmlns="http://www.w3.org/2000/svg" viewBox="0 0 22 22">
 <g transform="translate(-81.000208,-527.36047)">
  <path d="m 11 7 c -2.483 0 -4.799 0.855 -6.75 2.34 l 4.5 6.439 c 0.65 -0.495 1.422 -0.779 2.25 -0.779 c 0.828 0 1.6 0.284 2.25 0.779 l 4.5 -6.439 c -1.951 -1.485 -4.267 -2.34 -6.75 -2.34 z" transform="translate(81.000208,527.36047)" style="fill:#ececec;opacity:0.4;mask:none;fill-opacity:1;color:#000"/>
  <path d="m 11 3 c -3.31 0 -6.399 1.142 -9 3.121 l 2.25 3.219 c 1.951 -1.485 4.267 -2.34 6.75 -2.34 c 2.483 0 4.799 0.855 6.75 2.34 l 2.25 -3.219 c -2.601 -1.979 -5.69 -3.121 -9 -3.121 z" transform="translate(81.000208,527.36047)" style="fill:#ececec;opacity:0.75;mask:none;fill-opacity:1;color:#000"/>
  <path d="m 94.25 543.14 c -0.65 -0.495 -1.422 -0.78 -2.25 -0.78 -0.828 0 -1.6 0.285 -2.25 0.78 l 2.25 3.22 z" style="fill:#ececec;opacity:0.75;mask:none;fill-opacity:1;color:#000"/>
 </g>
</svg>
